public/Successful applied for jo bg.svg

<svg width="1919" height="1558" viewBox="0 0 1919 1558" fill="none" xmlns="http://www.w3.org/2000/svg">
<g clip-path="url(#clip0_924_3112)">
<path fill-rule="evenodd" clip-rule="evenodd" d="M1650.94 -4.59863L1621.57 9.83966C1592.2 24.2779 1532.14 53.8108 1445.83 26.5999C1358.18 0.0452727 1244.3 -83.2531 1176.35 -69.7453C1109.74 -56.8937 1089.07 52.7642 1042.15 105.678C995.239 158.592 919.414 156.075 848.863 160.914C776.977 166.41 710.365 179.261 654.237 216.807C599.443 253.696 555.133 315.279 496.401 344.155C437.668 373.032 361.842 370.515 307.049 407.404C250.921 444.949 215.824 521.901 151.817 543.421C89.145 564.285 -2.43804 529.718 -47.5622 512.106L-92.6862 494.494L-419.291 -169.796C114.644 -432.31 651.04 -689.819 1184.97 -952.333L1650.94 -4.59863Z" fill="url(#paint0_linear_924_3112)" fill-opacity="0.04"/>
<path fill-rule="evenodd" clip-rule="evenodd" d="M11 1696.56L42.7682 1677.93C74.5365 1659.29 139.517 1621.17 238.648 1644.57C339.224 1667.12 473.95 1751.2 549.1 1730.41C622.806 1710.48 636.937 1585.68 685.219 1522.4C733.5 1459.12 818.821 1455.67 897.612 1444.4C977.847 1432.29 1051.55 1412.35 1111.45 1365.56C1169.9 1319.62 1214.54 1246.83 1278.08 1209.55C1341.61 1172.28 1426.93 1168.83 1485.39 1122.89C1545.28 1076.1 1578.31 986.819 1648.37 957.366C1717 928.761 1822.66 959.982 1874.76 976.017L1926.87 992.052L2348.45 1710.67C1770.85 2049.52 1190.06 2382.96 612.46 2721.81L11 1696.56Z" fill="url(#paint1_linear_924_3112)" fill-opacity="0.06"/>
</g>
<defs>
<linearGradient id="paint0_linear_924_3112" x1="850.035" y1="389.173" x2="381.611" y2="-563.567" gradientUnits="userSpaceOnUse">
<stop stop-color="#1097CD"/>
<stop offset="1" stop-color="#00339B"/>
</linearGradient>
<linearGradient id="paint1_linear_924_3112" x1="877.406" y1="1188.29" x2="1482.04" y2="2218.95" gradientUnits="userSpaceOnUse">
<stop stop-color="#1097CD"/>
<stop offset="1" stop-color="#00339B"/>
</linearGradient>
<clipPath id="clip0_924_3112">
<rect width="1919" height="1558" fill="white"/>
</clipPath>
</defs>
</svg>

<svg xmlns="http://www.w3.org/2000/svg" width="1919" height="1558" fill="none"><g fill-rule="evenodd" clip-path="url(#a)" clip-rule="evenodd"><path fill="url(#b)" fill-opacity=".04" d="M1650.94-4.599 1621.57 9.84c-29.37 14.438-89.43 43.97-175.74 16.76C1358.18.045 1244.3-83.253 1176.35-69.745c-66.61 12.851-87.28 122.51-134.2 175.423-46.911 52.914-122.736 50.397-193.287 55.236-71.886 5.496-138.498 18.347-194.626 55.893-54.794 36.889-99.104 98.472-157.836 127.348-58.733 28.877-134.559 26.36-189.352 63.249-56.128 37.545-91.225 114.497-155.232 136.017-62.672 20.864-154.255-13.703-199.38-31.315l-45.123-17.612-326.605-664.29C114.644-432.31 651.04-689.819 1184.97-952.333L1650.94-4.599Z"/><path fill="url(#c)" fill-opacity=".06" d="m11 1696.56 31.768-18.63c31.769-18.64 96.749-56.76 195.88-33.36 100.576 22.55 235.302 106.63 310.452 85.84 73.706-19.93 87.837-144.73 136.119-208.01 48.281-63.28 133.602-66.73 212.393-78 80.235-12.11 153.938-32.05 213.838-78.84 58.45-45.94 103.09-118.73 166.63-156.01 63.53-37.27 148.85-40.72 207.31-86.66 59.89-46.79 92.92-136.071 162.98-165.524 68.63-28.605 174.29 2.616 226.39 18.651l52.11 16.035 421.58 718.618c-577.6 338.85-1158.39 672.29-1735.99 1011.14L11 1696.56Z"/></g><defs><linearGradient id="b" x1="850.035" x2="381.611" y1="389.173" y2="-563.567" gradientUnits="userSpaceOnUse"><stop stop-color="#1097CD"/><stop offset="1" stop-color="#00339B"/></linearGradient><linearGradient id="c" x1="877.406" x2="1482.04" y1="1188.29" y2="2218.95" gradientUnits="userSpaceOnUse"><stop stop-color="#1097CD"/><stop offset="1" stop-color="#00339B"/></linearGradient><clipPath id="a"><path fill="#fff" d="M0 0h1919v1558H0z"/></clipPath></defs></svg>
